;  Created by Sandify
;  https://sandify.org
;  Version: 0.2.6
;
;  Machine type: Rectangular
;    Min X (mm): 0
;    Max X (mm): 300
;    Min Y (mm): 0
;    Max Y (mm): 300
;  Content type: shape
;  Layer:
;    Shape: Circle
;    Name: polygon
;    Number of lobes: 1
;    Direction: clockwise
;    Visible: true
;    Initial width: 10
;    Initial height: 10
;    X offset: 0
;    Y offset: 0
;    Rotate (degrees): 0
;    Reverse path: false
;    Number of loops: 3
;    When transforming shape: smear
;    Scale: true
;      Scale (+/-): 100
;      Scale by: constant
;    Spin: false
;    Track: false
;    Fine tuning:
;      Connect to next layer: line
;      Draw portion of path (%): 100
;      Backtrack at end (%): 0
;      Rotate starting point (%): 0
;  Reverse export path: false
;
; File name: 'sandify'
; File type: gcode
;

G01 X160.000 Y150.000
G01 X160.066 Y150.495
G01 X160.107 Y150.995
G01 X160.124 Y151.502
G01 X160.114 Y152.012
G01 X160.079 Y152.525
G01 X160.018 Y153.039
G01 X159.930 Y153.553
G01 X159.816 Y154.066
G01 X159.676 Y154.576
G01 X159.508 Y155.082
G01 X159.314 Y155.583
G01 X159.094 Y156.077
G01 X158.848 Y156.562
G01 X158.576 Y157.038
G01 X158.278 Y157.503
G01 X157.955 Y157.955
G01 X157.608 Y158.394
G01 X157.236 Y158.817
G01 X156.841 Y159.224
G01 X156.424 Y159.614
G01 X155.984 Y159.984
G01 X155.524 Y160.335
G01 X155.044 Y160.664
G01 X154.544 Y160.971
G01 X154.027 Y161.254
G01 X153.492 Y161.513
G01 X152.942 Y161.746
G01 X152.378 Y161.953
G01 X151.800 Y162.133
G01 X151.210 Y162.284
G01 X150.610 Y162.407
G01 X150.000 Y162.500
G01 X149.383 Y162.563
G01 X148.759 Y162.595
G01 X148.131 Y162.597
G01 X147.500 Y162.566
G01 X146.868 Y162.504
G01 X146.235 Y162.410
G01 X145.605 Y162.284
G01 X144.977 Y162.126
G01 X144.355 Y161.935
G01 X143.739 Y161.713
G01 X143.132 Y161.459
G01 X142.535 Y161.173
G01 X141.949 Y160.856
G01 X141.376 Y160.508
G01 X140.819 Y160.130
G01 X140.277 Y159.723
G01 X139.754 Y159.286
G01 X139.250 Y158.822
G01 X138.768 Y158.330
G01 X138.307 Y157.813
G01 X137.871 Y157.270
G01 X137.460 Y156.703
G01 X137.076 Y156.113
G01 X136.719 Y155.501
G01 X136.392 Y154.869
G01 X136.094 Y154.218
G01 X135.828 Y153.550
G01 X135.595 Y152.865
G01 X135.394 Y152.167
G01 X135.228 Y151.455
G01 X135.096 Y150.732
G01 X135.000 Y150.000
G01 X134.940 Y149.260
G01 X134.917 Y148.514
G01 X134.931 Y147.765
G01 X134.982 Y147.013
G01 X135.071 Y146.260
G01 X135.197 Y145.510
G01 X135.362 Y144.762
G01 X135.564 Y144.021
G01 X135.805 Y143.286
G01 X136.082 Y142.561
G01 X136.397 Y141.847
G01 X136.748 Y141.146
G01 X137.136 Y140.460
G01 X137.559 Y139.790
G01 X138.017 Y139.140
G01 X138.510 Y138.510
G01 X139.035 Y137.902
G01 X139.592 Y137.318
G01 X140.180 Y136.760
G01 X140.798 Y136.229
G01 X141.445 Y135.727
G01 X142.119 Y135.255
G01 X142.818 Y134.816
G01 X143.542 Y134.410
G01 X144.289 Y134.038
G01 X145.056 Y133.702
G01 X145.843 Y133.403
G01 X146.647 Y133.143
G01 X147.467 Y132.921
G01 X148.300 Y132.740
G01 X149.145 Y132.599
G01 X150.000 Y132.500
G01 X150.863 Y132.443
G01 X151.731 Y132.429
G01 X152.602 Y132.458
G01 X153.475 Y132.530
G01 X154.347 Y132.646
G01 X155.216 Y132.805
G01 X156.080 Y133.008
G01 X156.936 Y133.255
G01 X157.783 Y133.545
G01 X158.618 Y133.877
G01 X159.439 Y134.253
G01 X160.243 Y134.670
G01 X161.030 Y135.128
G01 X161.796 Y135.627
G01 X162.539 Y136.165
G01 X163.258 Y136.742
G01 X163.951 Y137.356
G01 X164.615 Y138.006
G01 X165.248 Y138.691
G01 X165.850 Y139.409
G01 X166.417 Y140.160
G01 X166.949 Y140.940
G01 X167.444 Y141.750
G01 X167.900 Y142.586
G01 X168.316 Y143.446
G01 X168.690 Y144.330
G01 X169.022 Y145.235
G01 X169.309 Y146.159
G01 X169.552 Y147.100
G01 X169.748 Y148.055
G01 X169.898 Y149.022
G01 X170.000 Y150.000
G01 X170.054 Y150.985
G01 X170.059 Y151.976
G01 X170.015 Y152.969
G01 X169.922 Y153.963
G01 X169.780 Y154.955
G01 X169.587 Y155.942
G01 X169.346 Y156.922
G01 X169.055 Y157.893
G01 X168.715 Y158.852
G01 X168.327 Y159.796
G01 X167.892 Y160.724
G01 X167.409 Y161.632
G01 X166.880 Y162.519
G01 X166.306 Y163.382
G01 X165.687 Y164.218
G01 X165.026 Y165.026
G01 X164.323 Y165.803
G01 X163.580 Y166.547
G01 X162.798 Y167.256
G01 X161.979 Y167.929
G01 X161.126 Y168.562
G01 X160.238 Y169.154
G01 X159.319 Y169.704
G01 X158.371 Y170.210
G01 X157.396 Y170.670
G01 X156.395 Y171.083
G01 X155.372 Y171.447
G01 X154.329 Y171.761
G01 X153.267 Y172.025
G01 X152.190 Y172.236
G01 X151.100 Y172.395
G01 X150.000 Y172.500
G01 X148.892 Y172.551
G01 X147.779 Y172.547
G01 X146.664 Y172.488
G01 X145.550 Y172.374
G01 X144.438 Y172.205
G01 X143.333 Y171.980
G01 X142.236 Y171.700
G01 X141.150 Y171.365
G01 X140.079 Y170.975
G01 X139.025 Y170.532
G01 X137.991 Y170.036
G01 X136.979 Y169.488
G01 X135.992 Y168.888
G01 X135.032 Y168.238
G01 X134.103 Y167.540
G01 X133.206 Y166.794
G01 X132.345 Y166.002
G01 X131.520 Y165.166
G01 X130.736 Y164.287
G01 X129.993 Y163.368
G01 X129.294 Y162.411
G01 X128.641 Y161.417
G01 X128.036 Y160.388
G01 X127.480 Y159.328
G01 X126.976 Y158.238
G01 X126.525 Y157.121
G01 X126.128 Y155.980
G01 X125.787 Y154.816
G01 X125.502 Y153.634
G01 X125.276 Y152.435
G01 X125.108 Y151.223
G01 X125.000 Y150.000
G01 X124.952 Y148.769
G01 X124.965 Y147.534
G01 X125.039 Y146.297
G01 X125.174 Y145.062
G01 X125.370 Y143.831
G01 X125.628 Y142.607
G01 X125.946 Y141.394
G01 X126.326 Y140.194
G01 X126.765 Y139.010
G01 X127.263 Y137.847
G01 X127.820 Y136.706
G01 X128.434 Y135.590
G01 X129.104 Y134.503
G01 X129.829 Y133.446
G01 X130.608 Y132.424
G01 X131.438 Y131.438
G01 X132.319 Y130.492
G01 X133.248 Y129.588
G01 X134.223 Y128.728
G01 X135.243 Y127.914
G01 X136.304 Y127.150
G01 X137.405 Y126.436
G01 X138.543 Y125.776
G01 X139.715 Y125.171
G01 X140.920 Y124.622
G01 X142.153 Y124.133
G01 X143.413 Y123.703
G01 X144.696 Y123.335
G01 X145.999 Y123.029
G01 X147.320 Y122.788
G01 X148.654 Y122.611
G01 X150.000 Y122.500
G01 X151.353 Y122.455
G01 X152.711 Y122.477
G01 X154.069 Y122.566
G01 X155.426 Y122.722
G01 X156.777 Y122.945
G01 X158.119 Y123.236
G01 X159.449 Y123.593
G01 X160.763 Y124.016
G01 X162.058 Y124.505
G01 X163.332 Y125.058
G01 X164.580 Y125.675
G01 X165.799 Y126.355
G01 X166.987 Y127.096
G01 X168.140 Y127.897
G01 X169.255 Y128.756
G01 X170.329 Y129.671
G01 X171.360 Y130.640
G01 X172.345 Y131.662
G01 X173.280 Y132.734
G01 X174.165 Y133.854
G01 X174.995 Y135.019
G01 X175.769 Y136.226
G01 X176.484 Y137.474
G01 X177.139 Y138.759
G01 X177.731 Y140.078
G01 X178.260 Y141.428
G01 X178.722 Y142.806
G01 X179.117 Y144.208
G01 X179.443 Y145.632
G01 X179.700 Y147.075
G01 X179.886 Y148.532
G01 X180.000 Y150.000
G01 X180.042 Y151.476
G01 X180.011 Y152.956
G01 X179.907 Y154.436
G01 X179.730 Y155.914
G01 X179.480 Y157.384
G01 X179.157 Y158.845
G01 X178.761 Y160.291
G01 X178.294 Y161.720
G01 X177.755 Y163.127
G01 X177.147 Y164.510
G01 X176.469 Y165.865
G01 X175.724 Y167.188
G01 X174.912 Y168.476
G01 X174.036 Y169.726
G01 X173.097 Y170.934
G01 X172.097 Y172.097
G01 X171.039 Y173.213
G01 X169.924 Y174.277
G01 X168.755 Y175.288
G01 X167.535 Y176.243
G01 X166.267 Y177.139
G01 X164.952 Y177.973
G01 X163.595 Y178.744
G01 X162.198 Y179.449
G01 X160.765 Y180.085
G01 X159.298 Y180.652
G01 X157.802 Y181.147
G01 X156.279 Y181.569
G01 X154.734 Y181.916
G01 X153.170 Y182.188
G01 X151.591 Y182.383
G01 X150.000 Y182.500
G01 X148.401 Y182.539
G01 X146.799 Y182.499
G01 X145.197 Y182.380
G01 X143.599 Y182.182
G01 X142.008 Y181.905
G01 X140.430 Y181.549
G01 X138.867 Y181.115
G01 X137.324 Y180.604
G01 X135.804 Y180.015
G01 X134.311 Y179.351
G01 X132.850 Y178.613
G01 X131.423 Y177.802
G01 X130.035 Y176.920
G01 X128.688 Y175.968
G01 X127.387 Y174.949
G01 X126.135 Y173.865
G01 X124.935 Y172.718
G01 X123.790 Y171.510
G01 X122.703 Y170.244
G01 X121.678 Y168.924
G01 X120.717 Y167.552
G01 X119.822 Y166.131
G01 X118.996 Y164.664
G01 X118.242 Y163.155
G01 X117.561 Y161.607
G01 X116.956 Y160.024
G01 X116.428 Y158.409
G01 X115.979 Y156.767
G01 X115.611 Y155.101
G01 X115.324 Y153.415
G01 X115.120 Y151.714
G01 X115.000 Y150.000
G01 X114.964 Y148.279
G01 X115.013 Y146.554
G01 X115.147 Y144.830
G01 X115.366 Y143.111
G01 X115.670 Y141.401
G01 X116.059 Y139.704
G01 X116.531 Y138.025
G01 X117.087 Y136.367
G01 X117.725 Y134.735
G01 X118.444 Y133.133
G01 X119.242 Y131.565
G01 X120.119 Y130.034
G01 X121.072 Y128.546
G01 X122.099 Y127.102
G01 X123.198 Y125.708
G01 X124.367 Y124.367
G01 X125.604 Y123.083
G01 X126.904 Y121.858
G01 X128.266 Y120.695
G01 X129.687 Y119.599
G01 X131.163 Y118.572
G01 X132.691 Y117.617
G01 X134.267 Y116.736
G01 X135.889 Y115.932
G01 X137.551 Y115.207
G01 X139.250 Y114.563
G01 X140.983 Y114.003
G01 X142.745 Y113.527
G01 X144.532 Y113.138
G01 X146.340 Y112.836
G01 X148.164 Y112.623
G01 X150.000 Y112.500
G01 X151.844 Y112.467
G01 X153.691 Y112.525
G01 X155.537 Y112.674
G01 X157.377 Y112.914
G01 X159.207 Y113.245
G01 X161.022 Y113.666
G01 X162.818 Y114.177
G01 X164.590 Y114.777
G01 X166.334 Y115.465
G01 X168.046 Y116.239
G01 X169.721 Y117.098
G01 X171.355 Y118.040
G01 X172.944 Y119.064
G01 X174.484 Y120.167
G01 X175.970 Y121.346
G01 X177.400 Y122.600
G01 X178.770 Y123.925
G01 X180.075 Y125.318
G01 X181.313 Y126.777
G01 X182.479 Y128.298
G01 X183.572 Y129.878
G01 X184.588 Y131.512
G01 X185.524 Y133.198
G01 X186.378 Y134.932
G01 X187.147 Y136.709
G01 X187.829 Y138.525
G01 X188.422 Y140.376
G01 X188.925 Y142.257
G01 X189.335 Y144.165
G01 X189.652 Y146.095
G01 X189.874 Y148.041

